src/components/Icon/svg-icon/main/copy.svg

<svg xmlns="http://www.w3.org/2000/svg" width="24" height="24"><path fill="#677078" d="M16 1H4c-1.1 0-2 .9-2 2v14h2V3h12V1zm-1 4l6 6v10c0 1.1-.9 2-2 2H7.99C6.89 23 6 22.1 6 21l.01-14c0-1.1.89-2 1.99-2h7zm-1 7h5.5L14 6.5V12z"/></svg>

<svg xmlns="http://www.w3.org/2000/svg" width="24" height="24" viewBox="0 0 24 24">
  <path fill="#677078" d="M16,1 L4,1 C2.9,1 2,1.9 2,3 L2,17 L4,17 L4,3 L16,3 L16,1 Z M15,5 L21,11 L21,21 C21,22.1 20.1,23 19,23 L7.99,23 C6.89,23 6,22.1 6,21 L6.01,7 C6.01,5.9 6.9,5 8,5 L15,5 Z M14,12 L19.5,12 L14,6.5 L14,12 Z"/>
</svg>
